!!!!SEGMENT: pl-kk--kk-i-386--002-004_anonim--missa-seconda-graduale-alleluia.krn
!!!cenid: 18xx:4511
!!!COM: Anonim
!!!COM-rismID: pe30004985
!!!CDT:
!!!CNT:
!!!OPR: Missa seconda
!!!OTL: Graduale/Alleluia
!!!OMV: 004
!!!PDT:
!!!AGN: Sacred
!!!YEC: Copyright 2022 Narodowy Instytut Fryderyka Chopina (https://polishscores.org)
!!!YEM: License CC-BY-4.0 (https://creativecommons.org/licenses/by/4.0)
!!!SMS-siglum: PL-Kk
!!!SMS-shelfmark: Kk.I.386
!!!SMS-variant:
!!!SMS-altvar:
!!!SMS-shelfwork: 002-004 M
!!!NIFC-rismSourceID: 1001218240
!!!NIFC-rismChildID: 1001218243
!!!NIFC-islandoraID: pl-kk:16060
!!!URL-pdf-islandora: https://repozytorium.nifc.pl/islandora/object/pl-kk%3A16060/datastream/PDF/view
!!!URL-scan: https://polish.musicsources.pl/pl/lokalizacje/galeria/rekopisy/7134/3 @EN{Scan on Polish Music Sources Website} @PL{Skany w portalu Dziedzictwo Muzyki Polskiej w otwartym dostępie}
!!!IIIF:
!!!ONB-nifc: UWAGA: Części Missy Seconda: Rorate, Kyrie, Gloria, Graduale, Offertorium, Sanctus, Benedicuts, Agnus. Zakres skanów: S – 6-9, A – 15-19, T – 25-29, B – 35-39
!!!AIN: 1 alto 1 bass 1 soprn 1 tenor
!!!key:
**kern	**text	**kern	**text	**kern	**text	**kern	**text
*part4	*part4	*part3	*part3	*part2	*part2	*part1	*part1
*staff4	*staff4	*staff3	*staff3	*staff2	*staff2	*staff1	*staff1
*I"Basso.	*	*I"Tenore.	*	*I"Alto.	*	*I"Soprano.	*
*I'B	*	*I'T	*	*I'A	*	*I'S	*
*Ibass	*	*Itenor	*	*Ialto	*	*Isoprn	*
*ICvox	*	*ICvox	*	*ICvox	*	*ICvox	*
*clefF4	*	*clefC4	*	*clefC3	*	*clefC1	*
*k[]	*	*k[]	*	*k[]	*	*k[]	*
*C:	*	*C:	*	*C:	*	*C:	*
*M3/4	*	*M3/4	*	*M3/4	*	*M3/4	*
=1	=1	=1	=1	=1	=1	=1	=1
!LO:TX:a:t=in C.	!	!LO:TX:a:t=in C.	!	!	!	!	!
2C/	Al-	4G/	Al-	4e\	Al-	4g\	Al-
.	.	4c\	.	4g\	.	4ee\	.
4E\	-le-	4c\	-le-	4g\	-le-	4cc\	-le-
=2	=2	=2	=2	=2	=2	=2	=2
*2\right	*	*2\right	*	*2\right	*	*	*
2F\	-lu-	2c\	-lu-	2f\	-lu-	(4b\	-lu-
.	.	.	.	.	.	4a\)	.
4E\	-ia	4c#X\	-ia	4g\	-ia	4a\	-ia
=3	=3	=3	=3	=3	=3	=3	=3
2D\	al-	4d\	al-	2f\	al-	4a\	Al-
.	.	4f\	.	.	.	4dd\	.
4F\	-le-	8d\L	-le-	4a\	-le-	8ff\L	-le-
.	.	8f\J	.	.	.	8dd\J	.
=4	=4	=4	=4	=4	=4	=4	=4
4G\	-lu-	4e\	-lu-	4g\	-lu-	4cc\	-lu-
4GG/	-ia	4d\	-ia	4g\	-ia	4b\	-ia,
4r	.	4r	.	4r	.	4r	.
!	!	!	!	!	!	!LO:LB:g=original	!
=5	=5	=5	=5	=5	=5	=5	=5
4G\	al-	2B\	al-	4g\	al-	4dd\	Al-
4G#X\	.	.	.	4e\	.	4ee\	.
4G#\	-le-	4B\	-le-	4e\	-le-	4dd\	-le-
!LO:LB:g=original	!	!LO:LB:g=original	!	!	!	!	!
=6	=6	=6	=6	=6	=6	=6	=6
2A\	-lu-	2A\	-lu-	2e\	-lu-	4.cc\	-lu-
.	.	.	.	.	.	8cc#X\	.
4F#X\	-ia	4A\	-ia	4d\	-ia	8dd\L	-ia
.	.	.	.	.	.	8ccn\J	.
!	!	!	!	!LO:LB:g=original	!	!	!
=7	=7	=7	=7	=7	=7	=7	=7
2G\	al-	2B\	al-	2d\	al-	8b\L	al-
.	.	.	.	.	.	8cc\	.
.	.	.	.	.	.	8dd\	.
.	.	.	.	.	.	8dd#X\J	.
!	!	!	!	!	!	!LO:TX:t=P:problem=mixed beam	!
4D/	-le-	4c\	-le-	4d\	-le-	8ee\L	-le-
.	.	.	.	.	.	8f#X\J	.
=8	=8	=8	=8	=8	=8	=8	=8
4GG/	-lu-	4B\	-lu-	4d\	-lu-	4a\	-lu-
4GG/	-ia	4B\	-ia.	4d\	-ia	4g\	-ia
4r	.	4r	.	4r	.	4r	.
=9	=9	=9	=9	=9	=9	=9	=9
2C/	A-	4G/	A-	4e\	A-	4g\	A-
.	.	4c\	.	4g\	.	4ee\	.
4E\	-ve	4c\	-ve	4g\	-ve	4cc\	-ve
!	!	!	!	!	!	!LO:LB:g=original	!
=10	=10	=10	=10	=10	=10	=10	=10
4F\	Ma-	4c\	Ma-	4f\	Ma-	4b\	Ma-
4F\	-ri-	4c\	-ri-	4f\	-ri-	4a\	-ri-
4E\	-a	4c#X\	-a	4g\	-a	4a\	-a
=11	=11	=11	=11	=11	=11	=11	=11
2D\	gra-	2d\	gra-	2f\	gra-	4a\	gra-
.	.	.	.	.	.	4dd\	.
8F\	-ti-	8d\	-ti-	8a\	-ti-	8ff\	-tia
8F\	-a	8f\	-a	8a\	-a	8dd\	.
=12	=12	=12	=12	=12	=12	=12	=12
4G\	ple-	4e\	ple-	4g\	ple-	4cc\	ple-
4GG/	-na	4d\	-na	4g\	-na	4b\	-na
4r	.	4r	.	4r	.	4r	.
!LO:LB:g=original	!	!LO:LB:g=original	!	!	!	!	!
=13	=13	=13	=13	=13	=13	=13	=13
4F\	Do-	4B\	Do-	4g\	Do-	4dd\	Do-
!	!	!	!	!LO:LB:g=original	!	!	!
4E\	-mi-	4c\	-mi-	4g\	-mi-	4ee\	-mi-
4D\	-nus	4B\	-nus	4g\	-nus	4ff\	-nus
=14	=14	=14	=14	=14	=14	=14	=14
2C/	Do-	4.e\	Do-	2g\	Do-	4.gg\	Do-
.	.	8c\	.	.	.	8ee\	.
8F\	-mi-	8.d\	-mi-	8a\	-mi-	8ff\	-mi-
8F\	-nus	.	.	8a\	-nus	8dd\	-nus
.	.	16f\	-nus	.	.	.	.
=15	=15	=15	=15	=15	=15	=15	=15
2G\	te-	4e\	te-	2g\	te-	4cc\	te-
.	.	4c\	.	.	.	4ee\	.
4GG/	.	4d\	.	4fn\	.	4b\	.
!	!	!	!	!	!	!LO:LB:g=original	!
=16	=16	=16	=16	=16	=16	=16	=16
*	*	*	*	*	*	*2\right	*
2C/	-cum	2G/	-cum	2e\	-cum	2cc\	-cum
4r	.	4r	.	4r	.	4r	.
=17	=17	=17	=17	=17	=17	=17	=17
2G\	be-	2B\	be-	2g\	be-	2dd\	be-
4G\	-ne-	4B\	-ne-	4a\	-ne-	4dd\	-ne-
=18	=18	=18	=18	=18	=18	=18	=18
4E\	-dic-	4B\	-di-	4g#X\	-dic-	4ee\	-dic-
4E\	-ta	4B\	-cta	4g#\	-ta	4ee\	-ta
8E\	tu	8B\	tu	8g#\	tu	8ee\	tu
8E\	in	8B\	in	8g#\	in	8ee\	in
!LO:LB:g=original	!	!LO:LB:g=original	!	!	!	!	!
=19	=19	=19	=19	=19	=19	=19	=19
2A\	mu-	2A\	mu-	2e\	mu-	2cc\	mu-
4D\	-li-	4A\	-li-	4f#X\	-li-	4dd\	-li-
=20	=20	=20	=20	=20	=20	=20	=20
8G\	-e-	8A/	-e-	8f#X\	-e-	8cc\	-e-
8G\	-ri-	8G/	-ri-	8g\	-ri-	8b\	-ri-
4GG/	-bus	4G/	-bus	4g\	-bus	4b\	-bus
4r	.	4r	.	4r	.	4r	.
!	!	!	!	!LO:LB:g=original	!	!	!
=21	=21	=21	=21	=21	=21	=21	=21
4G\	et	4G/	et	4g\	et	4cc\	et
8G\	be-	8A/	be-	8f#X\	be-	8cc\	be-
8G\	-ne-	8A/	-ne-	8f#\	-ne-	8cc\	-ne-
8GG/	-dic-	8B\	-dic-	8fn\	-di-	8dd\	-di-
8GG/	-tus	8B\	-tus	8f\	-ctus	8dd\	-ctus
!	!	!	!	!	!	!LO:LB:g=original	!
=22	=22	=22	=22	=22	=22	=22	=22
4C/	fru-	4c\	fru-	4e\	fru-	4ee\	fru-
4D/	.	4B\	.	4g\	.	4dd\	.
4E-X/	-ctus	4A#X\	-ctus	4g\	-ctus	4cc#X\	-ctus
=23	=23	=23	=23	=23	=23	=23	=23
2D/	ven-	4B\	ven-	4g\	ven-	4dd\	ven-
.	.	4An\	.	4f#X\	.	4ccn\	.
4D/	-tris	4c\	-tris	4d\	-tris	4f#X/	-tris
!LO:LB:g=original	!	!	!	!	!	!	!
=24	=24	=24	=24	=24	=24	=24	=24
4G\	tu-	8c\L	tu-	4d\	tu-	8a\L	tu-
.	.	8B\J	.	.	.	8g\J	.
4GG/	-i	4B\	-i.	4d\	-i,	4g\	-i
4r	.	4r	.	4r	.	4r	.
!	!	!LO:LB:g=original	!	!	!	!	!
=25	=25	=25	=25	=25	=25	=25	=25
2C/	al-	4G/	al-	4e\	al-	4g\	al-
.	.	4c\	.	4g\	.	4ee\	.
4E\	-le-	4c\	-le-	4g\	-le-	4cc\	-le-
=26	=26	=26	=26	=26	=26	=26	=26
2F\	-lu-	2c\	-lu-	2fn\	-lu-	4b\	-lu-
.	.	.	.	.	.	4a\	.
4E\	-ia	4c#X\	-ia	4g\	-ia	4a\	-ia
=27	=27	=27	=27	=27	=27	=27	=27
2D\	al-	4d\	al	2f\	al-	4a\	al-
.	.	4f\	.	.	.	4dd\	.
4F\	-le-	8d\L	le-	4a\	-le-	8ff\L	-le-
.	.	8f\J	.	.	.	8dd\J	.
!	!	!	!	!	!	!LO:LB:g=original	!
=28	=28	=28	=28	=28	=28	=28	=28
4G\	-lu-	4e\	-lu-	4g\	-lu-	4cc\	-lu-
4GG/	-ia	4d\	-ia	4g\	-ia,	4b\	-ia
4r	.	4r	.	4r	.	4r	.
!	!	!	!	!LO:LB:g=original	!	!	!
=29	=29	=29	=29	=29	=29	=29	=29
4F\	al-	4B\	al-	2g\	al-	4dd\	al-
4E\	.	4c\	.	.	.	4ee\	.
4D\	-le-	4B\	-le-	4g\	-le-	4ff\	.
=30	=30	=30	=30	=30	=30	=30	=30
4C/	-lu-	4.e\	-lu-	2g\	-luia	4.gg\	.
4C/	-ia	.	.	.	.	.	.
.	.	8c\	-ia	.	.	8ee\	.
4F\	al-	8d\L	al-	4a\	al-	8ff\L	.
.	.	8f\J	.	.	.	8dd\J	.
!LO:LB:g=original	!	!LO:LB:g=original	!	!	!	!	!
=31	=31	=31	=31	=31	=31	=31	=31
4G\	.	4e\	-le-	2g\	-le-	4cc\	-le-
.	.	.	.	.	.	16qqdd/LL	.
.	.	.	.	.	.	16qqcc/	.
.	.	.	.	.	.	16qqb/	.
.	.	.	.	.	.	16qqcc/JJ	.
4GG/	-le-	4c\	.	.	.	4ee\	.
4GG#X/	-lu-	4B\	-lu-	4f\	-lu-	4dd\	-lu-
=32	=32	=32	=32	=32	=32	=32	=32
2.AA;/	-ia	2.A;\	-ia	2.e;\	-ia.	2.cc;\	-ia
=33||	=33||	=33||	=33||	=33||	=33||	=33||	=33||
4GG/	al-	4B-X\	al-	2e\	al-	2cc\	al-
4G\	.	4B-\	-le-	.	.	.	.
4G\	-le-	4B-\	-lu-	4e\	-le-	4cc\	-le-
!	!	!	!	!	!	!LO:LB:g=original	!
=34	=34	=34	=34	=34	=34	=34	=34
 4F\	-lu-	4.A\	-ia	4f\	-lu-	8cc\L	-lu-
.	.	.	.	.	.	8cc#X\	.
4F\	-ia	.	.	4f\	-ia	8dd\	.
.	.	8c#X\	.	.	.	8ee\J	.
4F\	al-	8d\L	al-	4a\	al-	8ff\L	-ia
.	.	8f\J	.	.	.	8dd\J	.
=35	=35	=35	=35	=35	=35	=35	=35
2G\	.	2cn\	-le-	2e\	-le-	2gg\	al-
.	.	8qe/	.	.	.	.	.
4GG/	-le-	4d\	-lu-	4f\	-lu-	4b\	-le-
=36	=36	=36	=36	=36	=36	=36	=36
4C/	-lu-	2G/	-ia.	2e\	-ia.	2cc\	-luia.
4C/	-ia.	.	.	.	.	.	.
4r	.	4r	.	4r	.	4r	.
==	==	==	==	==	==	==	==
*-	*-	*-	*-	*-	*-	*-	*-
!!!system-decoration: [(s1,s2,s3,s4)]
!!!ENC: Anastazja Marusiak
!!!END: 2023-11-04
!!!ENC: Leszek Kubiak
!!!END: 2024-06-25
